!!!COA:	Josquin des Prez
!!!CDT:	~1450-1521/08/27
!!!OTL:	Descendi in ortum meum
!!!AGN:	Motet
!!!SCT:	NJE 14.3
!!!SCA:	New Josquin Edition 14.3
!!!voices:	4
**kern	**kern	**kern	**kern
*staff4	*staff3	*staff2	*staff1
*Ivox	*Ivox	*Ivox	*Ivox
*I"Bassus	*I"Tenor	*I"Altus	*I"Superius
*I'B	*I'T	*I'A	*I'S
*clefF4	*clefGv2	*clefGv2	*clefG2
*k[b-]	*k[b-]	*k[b-]	*k[b-]
*M2/1	*M2/1	*M2/1	*M2/1
*met(C|)	*met(C|)	*met(C|)	*met(C|)
=1-	=1-	=1-	=1-
[0F	0F	1F	[0f
.	.	[1A	.
=2	=2	=2	=2
1F]	1.A	2A/]	0f]
.	.	2B-\	.
[1A	.	1c	.
.	2B-\	.	.
=3	=3	=3	=3
2A\]	0c	2.c\	1.a
2B-\	.	.	.
.	.	4B-\	.
1c	.	2A/	.
.	.	4G/	2b-\
.	.	4F/	.
=4	=4	=4	=4
2.C/	1c	2.E/	0cc
4D\	.	4D/	.
2E\	2r	2C/	.
[2F\	[2A/	[2c\	.
=5	=5	=5	=5
2F\]	2A/]	4c\]	[0cc
.	.	4d\	.
2E\	2G/	2e\	.
1F	1A	2c\	.
.	.	2d\	.
=6	=6	=6	=6
[0C	2.G/	2e\	0cc]
.	.	2.c\	.
.	4A/	.	.
.	2G/	.	.
.	.	4d\	.
.	[2A/	4e\	.
.	.	4f\	.
=7	=7	=7	=7
0C]	2A/]	4g\	0r
.	.	4f\	.
.	4G/	4e\	.
.	4F/	4d\	.
.	1G	1e	.
=8	=8	=8	=8
1r	0F	1f	1dd
1D	.	2r	1ff
.	.	2d\	.
=9	=9	=9	=9
0F	0r	2A/	1cc
.	.	1f	.
.	.	.	1dd
.	.	4e\	.
.	.	4d\	.
=10	=10	=10	=10
0C	0G	2e\	0cc
.	.	2.f\	.
.	.	4e\	.
.	.	4f\	.
.	.	4e\	.
=11	=11	=11	=11
0D	1B-	4f\	2r
.	.	4e\	.
.	.	4d\	1b-
.	.	4c\	.
.	1F	2.B-\	.
.	.	.	[2a/
.	.	4c\	.
=12	=12	=12	=12
0C	0G	1c	2a/]
.	.	.	4g/
.	.	.	4f/
.	.	2r	1e
.	.	2c\	.
=13	=13	=13	=13
1F	0F	1c	0f
2r	.	1d	.
2F\	.	.	.
=14	=14	=14	=14
1F	0r	1c	0r
1G	.	2r	.
.	.	[2B-\	.
=15	=15	=15	=15
2F\	2r	2B-\]	0r
1F	2c\	2A/	.
.	1c	1G	.
2E\	.	.	.
=16	=16	=16	=16
1D	1d	1A	1r
2E\	1c	2r	1cc
[2C/	.	2G/	.
=17	=17	=17	=17
4C/]	0r	2A/	1cc
4D\	.	.	.
4E\	.	1c	.
4C/	.	.	.
2G\	.	.	1dd
2G\	.	2Bni\	.
=18	=18	=18	=18
1A	0r	1c	1cc
1G	.	2r	2r
.	.	[2d\	[2b-\
=19	=19	=19	=19
2r	1r	2d\]	4b-\]
.	.	.	8a/L
.	.	.	8b-/J
1F	.	4c\	2.a/
.	.	4B-\	.
.	2r	2A/	.
.	.	.	4g/
2E\	[2B-\	2e\	[2g/
=20	=20	=20	=20
1D	2B-\]	2f\	2g/]
.	2A/	1d	2f/
1E	1G	.	1g
.	.	2c#i\	.
=21	=21	=21	=21
1D	1A	1d	2r
.	.	.	2f/
1E	1G	2r	1g
.	.	[2g\	.
=22	=22	=22	=22
1D	1A	4g\]	1f
.	.	4f\	.
.	.	2.f\	.
2r	1G	.	2r
.	.	4e\	.
[2C/	.	[2e\	[2g/
=23	=23	=23	=23
2C/]	2r	4e\]	4g/]
.	.	4d\	4f/
2BB-/	1F	2.d\	2d/
1C	.	.	2c/
.	.	4c\	.
.	2E/	[2c\	[2g/
=24	=24	=24	=24
1D	1F	2c\]	4g/]
.	.	.	4f/
.	.	2B-\	1f
1C	1G	1c	.
.	.	.	2e/
=25	=25	=25	=25
0FF	2F/	[0c	2f/
.	1c	.	1a
.	4B-\	.	4g/
.	4A/	.	4f/
=26	=26	=26	=26
1r	2.G/	0c]	2e/
.	.	.	1f
.	4F/	.	.
1C	1G	.	.
.	.	.	2e/
=27	=27	=27	=27
1D	0F	1r	[0f
1F	.	1c	.
=28	=28	=28	=28
1.F	0r	1d	0f]
.	.	1f	.
2F\	.	.	.
=29	=29	=29	=29
2.F\	0r	1.f	0r
4E\	.	.	.
4D\	.	.	.
4C/	.	.	.
[2D\	.	2f\	.
=30	=30	=30	=30
2D\]	0F	2f\	0r
4C/	.	4e\	.
4BB-/	.	4d\	.
1AA	.	1c	.
=31	=31	=31	=31
1GG	1G	2r	1r
.	.	1d	.
1r	1B-	.	1f
.	.	2d\	.
=32	=32	=32	=32
2r	1.B-	2d\	1g
1G	.	2d\	.
.	.	1d	1b-
2G\	2B-\	.	.
=33	=33	=33	=33
2G\	1B-	2r	1.b-
2G\	.	2B-\	.
1G	2r	2.B-\	.
.	2B-\	.	2b-\
.	.	4A/	.
=34	=34	=34	=34
2r	1B-	1G	1b-
1G	.	.	.
.	1A	1A	1r
2F\	.	.	.
=35	=35	=35	=35
1G	1G	1B-	0r
1F	1A	1c	.
=36	=36	=36	=36
2r	0B-	2.B-\	2r
2.G\	.	.	2b-\
.	.	4A/	.
.	.	2G/	1b-
4F\	.	.	.
2G\	.	[2g\	.
=37	=37	=37	=37
2D\	2r	2g\]	1a
2F\	2.c\	2f\	.
2C/	.	2g\	1g
.	4B-\	.	.
[2G\	[2B-\	[2d\	.
=38	=38	=38	=38
2G\]	4B-\]	4d\]	1a
.	4A/	4e\	.
2F\	1A	2f\	.
2G\	.	2e\	1b-
2B-\	2G/	2d\	.
=39	=39	=39	=39
2.F\	1A	2.c\	2r
.	.	.	2.cc\
4G\	.	4B-\	.
2A\	2r	2A/	.
.	.	.	4b-\
[2G\	[2d\	4B-\	[2b-\
.	.	4c\	.
=40	=40	=40	=40
2G\]	4d\]	4d\	4b-\]
.	4c\	4e\	4a/
2F\	2A/	1f	1a
1G	1B-	.	.
.	.	2e\	2g/
=41	=41	=41	=41
2.F\	1c	2.f\	1a
4E\	.	4g\	.
2.D\	1d	2f\	2r
.	.	4e\	2a/
8C/L	.	4d\	.
8BB-/J	.	.	.
=42	=42	=42	=42
2AA/	2.c\	2e\	2.a/
2.F\	.	1f	.
.	4B-\	.	4g/
.	4A/	.	2a/
4D\	4G/	.	.
[2G\	[2d\	4B-\	[2b-\
.	.	4c\	.
=43	=43	=43	=43
2G\]	4d\]	4d\	4b-\]
.	4c\	4e\	4a/
2F\	2A/	2f\	1a
1G	1B-	2e\	.
.	.	2d\	2g/
=44	=44	=44	=44
1D	0A	2r	0a
.	.	1f	.
1r	.	.	.
.	.	2e\	.
=45	=45	=45	=45
2r	0r	1f	0r
1F	.	.	.
.	.	1g	.
2E\	.	.	.
=46	=46	=46	=46
1F	0r	2c\	0r
.	.	2f\	.
1G	.	2e\	.
.	.	[2d\	.
=47	=47	=47	=47
1E	1r	2d\]	0r
.	.	2c#i\	.
1D	2r	1d	.
.	[2B-\	.	.
=48	=48	=48	=48
2r	2B-\]	2r	1r
2D\	2A/	2D/	.
1D	1B-	1F	2r
.	.	.	[2f/
=49	=49	=49	=49
1C	1c	1G	2f/]
.	.	.	2e/
1D	1A	2.F/	1f
.	.	4f\	.
=50	=50	=50	=50
2GG/	1G	2e\	1g
2G\	.	1d	.
2.A\	1r	.	1e
.	.	2c#i\	.
4G\	.	.	.
=51	=51	=51	=51
4F\	2r	1d	2d/
4E\	.	.	.
2.D\	1A	.	1f
.	.	2r	.
4C/	.	.	.
2BB-/	2G/	2D/	4e/
.	.	.	4d/
=52	=52	=52	=52
2AA/	2A/	2E/	4c/
.	.	.	4d/
1C	2.G/	2C/	4e/
.	.	.	4f/
.	.	1D	4g/
.	4F/	.	4a/
2BB-/	[2F/	.	4b-\
.	.	.	4cc\
=53	=53	=53	=53
1C	2F/]	2C/	2a/
.	2E/	2c\	2.g/
1D	1F	2A/	.
.	.	.	4f/
.	.	[2B-\	[2f/
=54	=54	=54	=54
1BB-	1G	4B-\]	2f/]
.	.	4c\	.
.	.	2d\	4e/
.	.	.	4d/
1C	1G	1c	1e
=55	=55	=55	=55
0FF	0F	2r	0f
.	.	2c\	.
.	.	2.c\	.
.	.	8B-\L	.
.	.	8c\J	.
=56	=56	=56	=56
0r	2r	4d\	0r
.	.	4c\	.
.	2F/	1f	.
.	2.c\	.	.
.	.	2e\	.
.	8B-\L	.	.
.	8c\J	.	.
=57	=57	=57	=57
2r	4d\	2f\	0r
.	4c\	.	.
2FF/	1f	2F/	.
2.C/	.	2G/	.
.	2e\	2G/	.
8BB-/L	.	.	.
8C/J	.	.	.
=58	=58	=58	=58
4D\	2f\	1F	0r
4C/	.	.	.
1F	2F/	.	.
.	2G/	1r	.
2E\	2G/	.	.
=59	=59	=59	=59
1.F	4F/	2r	2r
.	4G/	.	.
.	4A/	4F/	2f/
.	4B-\	4G/	.
.	2c\	4A/	2.f/
.	.	4B-\	.
4E\	2F/	4c\	.
4D\	.	4d\	8e/L
.	.	.	8f/J
=60	=60	=60	=60
2C/	2c\	2e\	4g/
.	.	.	4f/
2BB-/	2d\	1.f	1b-
1F	1c	.	.
.	.	.	2a/
=61	=61	=61	=61
1.G	0B-	2d\	1.b-
.	.	2.g\	.
.	.	4f\	.
2G\	.	4e-\	2b-\
.	.	4d\	.
=62	=62	=62	=62
1G	1r	2e-i\	1b-
.	.	1d	.
1E-i	1G	.	1g
.	.	2c\	.
=63	=63	=63	=63
[0D	2.A/	[0d	2.f/
.	4B-\	.	4g/
.	2A/	.	2a/
.	[2d\	.	[2f/
=64	=64	=64	=64
0D]	2d\]	0d]	4f/]
.	.	.	4d/
.	4c\	.	1g
.	4B-\	.	.
.	1A	.	.
.	.	.	2f#i/
=65	=65	=65	=65
[0G	2r	2.d\	2.g/
.	2.G/	.	.
.	.	4e\	4a/
.	.	2d\	4b-\
.	4A/	.	4g/
.	4B-\	[2g\	[2dd\
.	4G/	.	.
=66	=66	=66	=66
0G]	2B-\	1g]	4dd\]
.	.	.	4cc\
.	2c\	.	1cc
.	1d	2.g\	.
.	.	.	2bni\
.	.	4f\	.
=67	=67	=67	=67
2C/	1c	4e\	0cc
.	.	4d\	.
2F\	.	2c\	.
1F	2r	2A/	.
.	2c\	4G/	.
.	.	4F/	.
=68	=68	=68	=68
1E	1c	1G	0r
2.D\	1B-	1F	.
4E\	.	.	.
=69	=69	=69	=69
2F\	1A	0r	0r
1D	.	.	.
.	1B-	.	.
[2E\	.	.	.
=70	=70	=70	=70
2E\]	1.c	0r	0r
4D\	.	.	.
4C/	.	.	.
2C/	.	.	.
[2G\	[2B-\	.	.
=71	=71	=71	=71
4G\]	4B-\]	0r	0r
4F\	4A/	.	.
1F	4G/	.	.
.	4F/	.	.
.	1G	.	.
2E\	.	.	.
=72	=72	=72	=72
0F	0F	2r	1r
.	.	2f\	.
.	.	1f	2r
.	.	.	2cc\
=73	=73	=73	=73
0r	0r	1e	1cc
.	.	2.d\	1b-
.	.	4e\	.
=74	=74	=74	=74
0r	0r	2f\	1a
.	.	1d	.
.	.	.	1b-
.	.	[2e\	.
=75	=75	=75	=75
0r	0r	2e\]	1.cc
.	.	4d\	.
.	.	4c\	.
.	.	2c\	.
.	.	[2g\	[2b-\
=76	=76	=76	=76
0r	0r	4g\]	4b-\]
.	.	4f\	4a/
.	.	1f	4g/
.	.	.	4f/
.	.	.	1g
.	.	2e\	.
=77	=77	=77	=77
2r	1F	1f	1f
1BB-	.	.	.
.	1G	1r	2r
[2C/	.	.	[2e/
=78	=78	=78	=78
2C/]	1A	2r	2e/]
1D	.	2F/	2.f/
.	1A	2.A/	.
.	.	.	4g/
4C/	.	.	[2a/
4BB-/	.	4B-\	.
=79	=79	=79	=79
2.AA/	1A	1c	2a/]
.	.	.	4g/
4BB-/	.	.	4f/
1C	1G	2r	2e/
.	.	2c\	[2g/
=80	=80	=80	=80
2r	1A	1c	4g/]
.	.	.	4f/
2FF/	.	.	1f
1C	1G	2.c\	.
.	.	.	2e/
.	.	4B-\	.
=81	=81	=81	=81
1FF	1F	2A/	1f
.	.	4G/	.
.	.	4F/	.
2r	1E	1G	2r
2C/	.	.	2g/
=82	=82	=82	=82
1D	2r	2r	2f/
.	2F/	1d	2.a/
1E	1G	.	.
.	.	.	4g/
.	.	2c\	[2g/
=83	=83	=83	=83
1D	1A	1d	4g/]
.	.	.	4f/
.	.	.	1f
2r	1G	2B-\	.
2C/	.	2c\	2e/
=84	=84	=84	=84
1D	2r	2A/	2f/
.	2F/	1d	2.a/
1E	1G	.	.
.	.	.	4g/
.	.	2c\	[2g/
=85	=85	=85	=85
1D	1A	1d	4g/]
.	.	.	4f/
.	.	.	1f
2r	1G	2r	.
2C/	.	2G/	2e/
=86	=86	=86	=86
2D\	2r	2d\	2f/
2E\	2G/	2c\	2g/
2D\	2A/	2d\	2f/
2E\	2G/	2B-\	2g/
=87	=87	=87	=87
1C	2.c\	2c\	2e/
.	.	2e\	2a/
.	4B-\	.	.
2D\	2A/	1d	4g/
.	.	.	2f/
2BB-/	2B-\	.	.
.	.	.	8e/L
.	.	.	8d/J
=88	=88	=88	=88
1C	1G	1c	1e
2r	2r	2r	2r
2E\	2G/	2c\	2g/
=89	=89	=89	=89
2F\	2A/	2d\	2f/
2E\	2G/	2.c\	2g/
2.C/	2.c\	.	2e/
.	.	4B-\	.
.	.	4A/	[2a/
8D\L	4B-\	4G/	.
8E\J	.	.	.
=90	=90	=90	=90
2F\	2A/	2A/	4a/]
.	.	.	8g/L
.	.	.	8f/J
2BB-/	2B-\	1d	1f
1C	1G	.	.
.	.	[2c\	2e/
=91	=91	=91	=91
0D	0F	2c\]	2.f/
.	.	4B-\	.
.	.	4A/	4g/
.	.	1B-	2f/
.	.	.	4e/
.	.	.	4d/
=92	=92	=92	=92
0C;	0G;	0c;	0e;
=93	=93	=93	=93
0FFl	0Fl	0cl	0fl
==	==	==	==
*-	*-	*-	*-
!!!RDF**kern: l=long note in original notation
!!!RDF**kern: i=editorial accidental
!!!RDF**kern: V=start of tuplet marker
!!!RDF**kern: Z=end of tuplet marker
!!!ENC:	Will Watson 15/12/2011
!!!END:	2012/01/03/
!!!EED:	Jesse Rodin
!!!EEV:	2012/02/02/
!!attribution-level@Jos: 3 (tricky)
!!!ONB:	Translated from MusicXML and edited on 2012/02/02/ by Craig Sapp
!!muse2ps: C^@{COA}?\n@{SCT}^i2I150v95,95,95,150Q16
